assets/img/icon-dpos.svg

<?xml version="1.0" encoding="UTF-8" standalone="no"?>
<svg width="210px" height="160px" viewBox="0 0 210 160" version="1.1" xmlns="http://www.w3.org/2000/svg" xmlns:xlink="http://www.w3.org/1999/xlink" xmlns:sketch="http://www.bohemiancoding.com/sketch/ns">
    <!-- Generator: Sketch 3.3.1 (12002) - http://www.bohemiancoding.com/sketch -->
    <title>icons</title>
    <desc>Created with Sketch.</desc>
    <defs></defs>
    <g id="Website" stroke="none" stroke-width="1" fill="none" fill-rule="evenodd" sketch:type="MSPage">
        <g id="icons" sketch:type="MSArtboardGroup">
            <g id="icon-dpos" sketch:type="MSLayerGroup" transform="translate(31.000000, 34.000000)">
                <path d="M73.2178218,42.4565217 L101,84 L58.1881188,83.5434783 L37.6930693,42 L9,66.1956522 L29.4950495,83.5434783 L73.2178218,42.4565217 Z" id="Path-1517" stroke="#546979" stroke-width="0.8" sketch:type="MSShapeGroup"></path>
                <path d="M106.138158,7 L73,43 L142,43 L106.138158,7 Z" id="Path-1516" stroke="#546979" stroke-width="0.8" sketch:type="MSShapeGroup"></path>
                <ellipse id="Oval-57-Copy" stroke="#546979" stroke-width="0.8" fill="#73C9C9" sketch:type="MSShapeGroup" cx="73" cy="43.5" rx="8" ry="8.5"></ellipse>
                <path d="M72.9995111,48 C75.761807,48 78,45.7615881 78,43 C78,40.2384119 75.761807,38 72.9995111,38 C70.238193,38 68,40.2384119 68,43 C68,45.7615881 70.238193,48 72.9995111,48 L72.9995111,48 Z M71.1739513,42.6753374 L72.1938007,43.6952865 L74.4740393,41.2740074 L74.8025814,40.9258752 L75.5017112,41.5869353 L75.1731691,41.9340896 L72.5526547,44.7113241 L72.2162902,45.0702132 L70.8375868,43.6913749 L70.5022001,43.3520438 L71.1739513,42.6753374 Z" id="Fill-4-Copy" fill="#FFFFFF" sketch:type="MSShapeGroup"></path>
                <ellipse id="Oval-57-Copy-2" stroke="#546979" stroke-width="0.8" fill="#F7A696" sketch:type="MSShapeGroup" cx="106" cy="8.5" rx="8" ry="8.5"></ellipse>
                <ellipse id="Oval-57-Copy-3" stroke="#546979" stroke-width="0.8" fill="#FDE699" sketch:type="MSShapeGroup" cx="140" cy="43.5" rx="8" ry="8.5"></ellipse>
                <ellipse id="Oval-57-Copy-4" stroke="#546979" stroke-width="0.8" fill="#F6FAFC" sketch:type="MSShapeGroup" cx="100" cy="83.5" rx="8" ry="8.5"></ellipse>
                <ellipse id="Oval-57-Copy-5" stroke="#546979" stroke-width="0.8" fill="#D8D8D8" sketch:type="MSShapeGroup" cx="59" cy="83.5" rx="8" ry="8.5"></ellipse>
                <ellipse id="Oval-57-Copy-6" stroke="#546979" stroke-width="0.8" fill="#ACD7F7" sketch:type="MSShapeGroup" cx="29" cy="83.5" rx="8" ry="8.5"></ellipse>
                <ellipse id="Oval-57-Copy-7" stroke="#546979" stroke-width="0.8" fill="#F6FAFC" sketch:type="MSShapeGroup" cx="8" cy="67.5" rx="8" ry="8.5"></ellipse>
                <ellipse id="Oval-57-Copy-8" stroke="#546979" stroke-width="0.8" fill="#D8D8D8" sketch:type="MSShapeGroup" cx="37" cy="43.5" rx="8" ry="8.5"></ellipse>
                <text id="DPOS" sketch:type="MSTextLayer" font-family="Proxima Nova" font-size="15.5725191" font-weight="260" fill="#CFD8DC">
                    <tspan x="106" y="70">DPOS</tspan>
                </text>
            </g>
        </g>
    </g>
</svg>

<svg width="210" height="160" xmlns="http://www.w3.org/2000/svg">
  <g transform="translate(31 34)" fill="none" fill-rule="evenodd">
    <path d="M73.218 42.457L101 84l-42.812-.457L37.693 42 9 66.196l20.495 17.347 43.723-41.086z" stroke="#546979" stroke-width=".8"/>
    <path d="M106.138 7L73 43h69L106.138 7z" stroke="#546979" stroke-width=".8"/>
    <ellipse stroke="#546979" stroke-width=".8" fill="#73C9C9" cx="73" cy="43.5" rx="8" ry="8.5"/>
    <path d="M73 48A5 5 0 1 0 73 38 5 5 0 0 0 73 48zm-1.826-5.325l1.02 1.02 2.28-2.421.329-.348.699.66-.329.348-2.62 2.777-.337.36-1.378-1.38-.336-.339.672-.677z" fill="#FFF"/>
    <ellipse stroke="#546979" stroke-width=".8" fill="#F7A696" cx="106" cy="8.5" rx="8" ry="8.5"/>
    <ellipse stroke="#546979" stroke-width=".8" fill="#FDE699" cx="140" cy="43.5" rx="8" ry="8.5"/>
    <ellipse stroke="#546979" stroke-width=".8" fill="#F6FAFC" cx="100" cy="83.5" rx="8" ry="8.5"/>
    <ellipse stroke="#546979" stroke-width=".8" fill="#D8D8D8" cx="59" cy="83.5" rx="8" ry="8.5"/>
    <ellipse stroke="#546979" stroke-width=".8" fill="#ACD7F7" cx="29" cy="83.5" rx="8" ry="8.5"/>
    <ellipse stroke="#546979" stroke-width=".8" fill="#F6FAFC" cx="8" cy="67.5" rx="8" ry="8.5"/>
    <ellipse stroke="#546979" stroke-width=".8" fill="#D8D8D8" cx="37" cy="43.5" rx="8" ry="8.5"/>
    <text font-family="Proxima Nova" font-size="15.573" font-weight="260" fill="#CFD8DC">
      <tspan x="106" y="70">DPOS</tspan>
    </text>
  </g>
</svg>
